X: 115203
T: DUCHESS OF ATHOLE
Q: "Strathspey."
R:  Strathspey.
%R: strathspey
B: James Kerr "Merry Melodies" v.1 p.15 s.2 #3
Z: 2017 John Chambers <jc:trillian.mit.edu>
M: C
L: 1/16
K: A
uA2 |:\
vE3vA (cA3) vB3vA F4 | EA3 cA3 ve3vA uc4 |\
vd3uf ca3 vB3vA F4 | E3Ac3A B4 A4 ::\
ve3vcua3uc (dcBA) F4 | e3ca3c (ecef) a4 |\
f3ea3c (dcBA) F4 | vE3uA cA3 B4 A4 :|

%%sep 1 1 500
%%sep 1 1 500

